icons/eye-closed-16.svg

<svg xmlns="http://www.w3.org/2000/svg" width="16" height="16" viewBox="0 0 16 16"><path fill-rule="evenodd" d="M.143 2.31a.75.75 0 011.047-.167l14.5 10.5a.75.75 0 11-.88 1.214l-2.248-1.628C11.346 13.19 9.792 14 8 14c-1.981 0-3.67-.992-4.933-2.078C1.797 10.832.88 9.577.43 8.9a1.618 1.618 0 010-1.797c.353-.533.995-1.42 1.868-2.305L.31 3.357A.75.75 0 01.143 2.31zm3.386 3.378a14.21 14.21 0 00-1.85 2.244.12.12 0 00-.022.068c0 .021.006.045.022.068.412.621 1.242 1.75 2.366 2.717C5.175 11.758 6.527 12.5 8 12.5c1.195 0 2.31-.488 3.29-1.191L9.063 9.695A2 2 0 016.058 7.52l-2.53-1.832zM8 3.5c-.516 0-1.017.09-1.499.251a.75.75 0 11-.473-1.423A6.23 6.23 0 018 2c1.981 0 3.67.992 4.933 2.078 1.27 1.091 2.187 2.345 2.637 3.023a1.619 1.619 0 010 1.798c-.11.166-.248.365-.41.587a.75.75 0 11-1.21-.887c.148-.201.272-.382.371-.53a.119.119 0 000-.137c-.412-.621-1.242-1.75-2.366-2.717C10.825 4.242 9.473 3.5 8 3.5z"/></svg>

<svg xmlns="http://www.w3.org/2000/svg" width="16" height="16" viewBox="0 0 16 16">
  <defs/>
  <path d="M0.143,2.31 C0.386,1.975 0.855,1.9 1.19,2.143 L15.69,12.643 C15.915,12.797 16.04,13.061 16.014,13.333 C15.988,13.605 15.817,13.841 15.567,13.95 C15.316,14.059 15.026,14.023 14.81,13.857 L12.562,12.229 C11.346,13.19 9.792,14 8,14 C6.019,14 4.33,13.008 3.067,11.922 C1.797,10.832 0.88,9.577 0.43,8.9 C0.067,8.356 0.067,7.647 0.43,7.103 C0.783,6.57 1.425,5.683 2.298,4.798 L0.31,3.357 C-0.025,3.114 -0.1,2.645 0.143,2.31 Z M1.679,7.932 C1.665,7.952 1.657,7.976 1.657,8 C1.657,8.021 1.663,8.045 1.679,8.068 C2.091,8.689 2.921,9.818 4.045,10.785 C5.175,11.758 6.527,12.5 8,12.5 C9.195,12.5 10.31,12.012 11.29,11.309 L9.063,9.695 C8.372,10.129 7.487,10.1 6.827,9.622 C6.166,9.143 5.862,8.312 6.058,7.52 L3.529,5.688 C2.837,6.371 2.217,7.123 1.679,7.932 Z M8,3.5 C7.484,3.5 6.983,3.59 6.501,3.751 C6.245,3.843 5.959,3.789 5.754,3.61 C5.549,3.431 5.457,3.155 5.514,2.888 C5.571,2.622 5.768,2.408 6.028,2.328 C6.663,2.113 7.329,2.002 8,2 C9.981,2 11.67,2.992 12.933,4.078 C14.203,5.169 15.12,6.423 15.57,7.101 C15.933,7.645 15.933,8.355 15.57,8.899 C15.46,9.065 15.322,9.264 15.16,9.486 C14.915,9.82 14.446,9.892 14.111,9.648 C13.777,9.403 13.705,8.933 13.95,8.599 C14.098,8.398 14.222,8.217 14.321,8.069 C14.35,8.028 14.35,7.973 14.321,7.932 C13.909,7.311 13.079,6.182 11.955,5.215 C10.825,4.242 9.473,3.5 8,3.5 Z"/>
</svg>
